X: 31185
T: Paddy Fahey's
R: reel
M: 4/4
K: Cmajor
F|:ECEG cBce|g^fdc BG{/F} G{/A}G|A{/B}AFA G{/A}GEG|
FAdc BGFD|ECEG {/d}cBce|g^fdc BG{/A} G{/F}G|A{/B}AFA G{/A}GEG|1 F{/G}FDF ECGF:|2 F{/G}FDF ECEG||
|:c{/d}cGF EGcd|ecgc acgc|A_BFB ABdB|f_BAB fBcB|
GccB cdcB||Gc{/d} cB cdef|g{/a}g{/e} ^fa gb=fa|1 g{/a}gec BGAB:|2 g{/a}gec BGFD||

